X: 1
T:March  " "
M:6/8
L:1/8
Q:80
C:ADPB/JHP
S:ANGUS MACKINNON
K:HP
|: {g}c/2e3/2|
{gfg}f2B{g}B2{GdGe}B|
a3/2f/2{g}e{g}f3/2g/2a|  !
{cd}c2{e}A{g}A2{GdGe}A|
{gef}e2B{gcd}c3/2B/2{G}A| |
{gfg}f2B{g}B2{GdGe}B|  !
a3/2f/2{g}e{g}f3|
a3/2e/2{A}e{g}f3/2g/2a|
{cd}c3/2B/2{G}B{g}B2:| |:  !
{d}c/2e3/2|
{gfg}f3{ag}a2e|
{g}f3/2g/2a{fg}f2e|  !
{gcd}c2{e}A{g}A2{GdGe}A|
{gef}e2B{gcd}c3/2B/2{G}A| |
{gfg}f3{ag}a2e|  !
{g}f3/2g/2a{fg}f3|
a3/2e/2{A}e{g}f3/2g/2a|
{cd}c3/2B/2{G}B{g}B2:| |:  !
{d}c/2e3/2|
{gfg}f2B{g}B3/2c/2d|
{g}B3/2c/2d{gde}d3/2c/2B|  !
{g}A3/2B/2{GdG}c{g}c3/2B/2{G}A|
{g}e3/2c/2{G}A{gcd}c3/2B/2{G}A| |
{gfg}f2B{g}B3/2c/2d|  !
{g}B3/2c/2d{gde}d3/2c/2B|
{g}A3/2c/2e{g}f3/2g/2a|
{cd}c3/2B/2{G}B{g}B2:| |:  !
{d}c/2e3/2|
{gfg}f2Ba3/2g/2a|
{fg}f3/2B/2a{fg}f2e|  !
{gcd}c2{e}A{g}A2{GdGe}A|
{gef}e2B{gcd}c3/2B/2{G}A| |
{gfg}f2Ba3/2g/2a|  !
{fg}f3/2B/2a{fg}f3|
a3/2e/2{A}e{g}f3/2g/2a|
{cd}c3/2B/2{G}B{g}B2:|  !
